X:1
T:Waltz For Debby
C:Bill Evans & Gene Lees
L:1/4
M:6/4
I:linebreak $
K:F
"F" c3"Dm" F3 |"Gm" B3"C7" E3 |"A/G" A3"D7" z3 |"G/F" z G F"C7" E F G |$"F/Eb" A2 G"Gm" F G A |
"Gø" B2 A"C7" G A"Bb" B |"Am" c3"D7" A, B, C |"Bb" D E F"Eø" G A B |$"F" c3"Dm" F3 |
"Gm" B3"C7" E3 |"A/G" A3"D7" z3 |"G/F" z G F"C7" E F G |$"A+" A2 G"Dm" F G A ||
[K:A]"Bm" B2 A"E7" G A B |"C#m" c3"Bm" z3 |"A" z3"A/G" z3 ||$[K:F]"Gm" d3"C7" z2 c |
"Am" d3"D7" z2 c |"Gm" d c B"A+" A3 |"Dm" G2 F"Cm" d c B |$"Bb" A2 B"A7" A2 E |
"Dm" F A c"G7" e f d ||[K:Ab]"Ab" c3"Db" A, B, C ||[K:F]"Gm" D E F"C7" G A B |$"F" c3"Dm" F3 |
"Gm" B3"C7" E3 |"A/G" A3"D7" z3 |"G/F" z G F"C7" E F G |$"F/Eb" A2 G"Gm" F G A |
"Gø" B A G"Dm/C" A B"C/Bb" c |"Am" d3"D7" z3 |"Bm" z e d"E7" e d e |$"F6" c2"C7" z"F7" z3 |
"Bb" z c B"A+" c B c |"Dm" A3 z3 |"Db7" z G F G F G |$"Am" F G F"Abo" G F G |"Gm" d3"C7" E3 |
"F" F3 z3 | z3 z3 |]

